X:1
T:The Infant King
T:Arranged by Edgar Pettman (1866-1943)
T:Rev. Sabine Baring-Gould (1834-1924)
T:The Infant King
T:From an old Basque Nöel
T:© CPDL 2015
T:© CPDL 2015
C:Arranged by Edgar Pettman (1866-1943)
Z:Rev. Sabine Baring-Gould (1834-1924)
Z:© CPDL 2015
%%score [ ( 1 2 ) ( 3 4 5 ) ]
L:1/8
Q:1/4=120
M:6/8
K:F
V:1 treble nm="Soprano" snm="S."
V:2 treble 
V:3 bass nm="Bass" snm="B."
V:4 bass 
V:5 bass 
V:1
!pp!"^Smoothly, and not too fast" FGE | F3 GAB | c2 d c2 B | AGA FGE | F3 BAB | G2 c (=Bc)d | %6
w: ||||||
w: ||||||
 c3!mf!!<(! cd!<)!e | f2 c d2 B | %8
w: ||
w: ||
"^2.  Sing lullaby!               3.  Sing lullaby!  Lullaby baby, now a-sleeping,           Lullaby baby, now a-dozing,  Sing lullaby!                 Sing lullaby!  Hush, do not wake the infant King,        Hush, do not wake the infant King,  Soon will come sorrow with the morning,      Soon comes the cross, the nails, the piercing,  Soon will come bitter grief and weeping:      Then in the grave at last reposing  Sing lullaby!                 Sing lullaby!           4.  Sing lullaby!             Lullaby! is the babe awaking?             Sing lullaby!             Hush, do not stir the infant King.             Dreaming of Easter, gladsome morning.             Conquering Death, its bondage breaking:             Sing lullaby!" c2 A cBA | %9
w: |
w: |
 G2 A"^dim." (FG)A | G3!pp! C3 | !>!F3- F GE | F3 || %13
w: ||||
w: ||Sing _ lul- la-|by!|
V:2
 CDB, | C3 CFF | E2 F F2 (F/G/) | FEE DDC | C3 FEF | E2 G F2 F | E3 FFG | F2 F F2 G | E2 F GGF | %9
w: Sing lul- la-|by! Lul- la- by|ba- by, now re- *|clin- * ing, Sing lul- la-|by! Hush, do not|wake the In- fant|King. An- gels are|watch- ing, * are|shin- ing O- ver the|
 E2 E D2 E | D3 G,3 | z3 CDC | C2 x || %13
w: place where He is|ly- ing|Sing lul- la-|by.|
V:3
!pp! A,B,G, | A,3 CCF, | G,2 B, C2 (D/C/) | C2 C A,B,G, | A,3 B,CD | C2 C (DC)=B, | C3!mf! CB,B, | %7
 C2 C B,2 D | C2 C CCC | C2 A, A,2 A, | B,3 E,3 | z3!pp! CB,G, | A,3 || %13
V:4
 F,F,F, | F,3 E,F,D, | C,2 B,, A,,2 (D,/E,/) | F,C,A,, D,B,,C, | F,3 D,C,B,, | C,2 E, D,2 G, | %6
 (C,!<(!C_B,)!<)! A,B,G, | A,2 A, B,2 G, | x2 F, E,E,F, | C,2 C, D,2 C, | B,,3 x3 | x3 A,,B,,C, | %12
 [F,,C,]3 || %13
V:5
 x3 | x6 | x6 | x6 | x6 | x6 | x6 | x6 | A,2 x4 | x6 | x6 | x6 | x3 || %13

